packages/icons/src/assets/slideshow.svg

<svg width="16" height="16" viewBox="0 0 16 16" fill="none" xmlns="http://www.w3.org/2000/svg">
  <g clip-path="url(#clip0_7795_380)">
    <path d="M12.2822 2.60059C12.9577 2.61768 13.5 3.17101 13.5 3.85059V12.1504C13.4998 12.8406 12.9403 13.4004 12.25 13.4004H3.75C3.05974 13.4004 2.50016 12.8406 2.5 12.1504V3.85059C2.5 3.17101 3.04231 2.61768 3.71777 2.60059L3.75 2.59961H12.25L12.2822 2.60059ZM3.75 12.1504H12.25V3.85059H3.75V12.1504ZM1.25 11.6006H0V4.5H1.25V11.6006ZM16.0498 11.6006H14.7998V4.5H16.0498V11.6006Z" fill="currentColor"/>
  </g>
  <defs>
    <clipPath id="clip0_7795_380">
      <rect width="16" height="16" fill="white"/>
    </clipPath>
  </defs>
</svg>

<svg xmlns="http://www.w3.org/2000/svg" width="16" height="16" viewBox="0 0 16 16"><path d="M12.282 2.6A1.25 1.25 0 0 1 13.5 3.85v8.3c0 .69-.56 1.25-1.25 1.25h-8.5c-.69 0-1.25-.56-1.25-1.25v-8.3c0-.679.542-1.232 1.218-1.25zM3.75 12.15h8.5v-8.3h-8.5zm-2.5-.55H0V4.5h1.25zm14.8 0H14.8V4.5h1.25z"/></svg>
